!!!!SEGMENT: pl-wnifc--13846--076_anonim--piesni-polskie-i-ruskie-ludu-galicyjskiego-76-potok-plynie-dolina.krn
!!!kernsource:
!!!cenid: 18xx:3298
!!!COM: Anonim
!!!COM-rismid: pe30004985
!!!CDT:
!!!CNT:
!!!GTL: Pieśni polskie i ruskie ludu galicyjskiego
!!!OTL: 76. Potok płynie doliną
!!!PDT: 1833
!!!AGN:
!!!SMS-siglum: PL-Wnifc
!!!SMS-shelfmark: 13846
!!!SMS-shelfwork: 076 G
!!!NIFC-rismid: 1001037251
!!!URL-scan: http://repozytorium.nifc.pl/skany/pl-wnifc-nut--13846
!!!ONB-nifc:
!!!OMD: Andante
!!!AIN: 1 piano 1 vox
!!!key: g
**kern	**kern	**kern	**text
*part2	*part2	*part1	*part1
*staff3	*staff2	*staff1	*staff1
*>[A,B,B]	*>[A,B,B]	*>[A,B,B]	*>[A,B,B]
*>A	*>A	*>A	*>A
*I"FORTEPIAN.	*I"FORTEPIAN.	*I"GŁOS.	*
*Ipiano	*Ipiano	*Ivox	*
*ICklav	*ICklav	*ICvox	*
*IGacmp	*IGacmp	*IGsolo	*
*clefF4	*clefG2	*clefG2	*
*k[b-e-]	*k[b-e-]	*k[b-e-]	*
*g:	*g:	*g:	*
*M2/4	*M2/4	*M2/4	*
=1-	=1-	=1-	=1-
*^	*	*	*
!	!	!LO:TX:a:t=E. 31.:rj	!	!
8r	2BB-\	8b-\L	8b-\	Po-
*ped	*	*	*	*
(<8F/L	.	16b-\L	(>16b-\LL	-tok
.	.	16a\JJ	16a\JJ)	.
8B-/	.	(>16b-\LL	(>16b-\LL	pły-
.	.	16cc\	16cc\	.
8d/J)	.	16dd\JJ)	16dd\JJ)	.
*Xped	*	*	*	*
.	.	16b-\	16cc\	-nie
=2	=2	=2	=2	=2
8r	2FF\	16cc\LL	(<16cc/LL	do-
*ped	*	*	*	*
.	.	16b-\JJ	16b-/JJ)	.
(<8F/L	.	16b-\LL	(<16b-/LL	-li-
.	.	16a\JJ	16a/JJ)	.
8c/	.	4a\	4a/	-ną
*Xped	*	*	*	*
8e-/J)	.	.	.	.
!!LO:LB:g=original
=3	=3	=3	=3	=3
8r	2BBB-\	8b-\	8b-\	nad
*ped	*	*	*	*
(<8D/L	.	(>16b-\LL	(>16b-\LL	po-
.	.	16a\JJ)	16a\JJ)	.
8F/	.	(>16b-\LL	(>16b-\LL	-to-
.	.	16cc\	16cc\	.
8B-/J)	.	16dd\	16dd\JJ)	.
*Xped	*	*	*	*
.	.	16b-\JJ)	16b-\	-kiem
=4	=4	=4	=4	=4
8r	4EE-\	8cc#X/L 8g/ 8c#X/	8cc#X\	ja-
8A/ 8G/ 8E-/	.	8cc#/J 8g/ 8c#/	8cc#\	-wo-
8r	4DD\	4dd/ 4f#X/ 4d/	4dd\	-ry,
8A/ 8F#X/ 8D/	.	.	.	.
=5!|:	=5!|:	=5!|:	=5!|:	=5!|:
*>B	*>B	*>B	*>B	*>B
8r	2GGG\	16b-/LL	(<16b-/LL	tam
*ped	*	*	*	*
.	.	16a/	16a/JJ)	.
(<8D/L	.	16g/	(<16g/LL	ja
.	.	16f#X/JJ	16f#X/JJ)	.
8G/	.	16g/LL	(<16g/LL	s_to-
.	.	16b-/	16b-/	.
8B-/J)	.	16dd/	16dd/JJ)	.
*Xped	*	*	*	*
.	.	16b-/JJ	16b-/	-bą
!!LO:LB:g=original
=6	=6	=6	=6	=6
8r	2DD\	(<16a/LL	(<16a/LL	Ju-
*ped	*	*	*	*
.	.	16g/JJ)	16g/JJ)	.
(<8D/L	.	(<16g/LL	(<16g/LL	-sty-
.	.	16f#X/JJ)	16f#X/JJ)	.
8A/	.	4f#/	4f#/	-no,
*Xped	*	*	*	*
8c/J)	.	.	.	.
*v	*v	*	*	*
=7	=7	=7	=7
8D\L	16d/LL	(<16d/LL	słod-
.	16f#X/JJ	16f#X/JJ)	.
8c\ 8A\	16a/LL	(<16a/LL	-kie
.	16f#/JJ	16f#/JJ)	.
8D\	8.dd\L	8.dd\	pę-
8c\J 8A\	.	.	.
.	16f#X/Jk	16f#X/	-dził
=8	=8	=8	=8
*^	*	*	*
.	.	8qa/	.	.
8GG/L	4GG\	8g/	8g/	wie-
(>8B-\ 8G\	.	16g/LL	(<16g/LL	-czo-
.	.	16f#X/JJ	16f#X/JJ)	.
8d\J 8B-\ 8G\)	4ryy	8g/	8g/	-ry.
8r	.	8r	8r	.
*v	*v	*	*	*
==	==	==	==
*-	*-	*-	*-
!!!system-decoration: <s1>{(s2,s3)}
!!!RDF**kern: > = above
!!!RDF**kern: < = below
!!!ENC: Emilia Ziętek
!!!ENC: Andrzej Kubiczek
!!!END: 2021-11-11
